resources/xr.svg

<svg fill="#f4f4f7" fill-opacity="context-fill-opacity" viewBox="0 0 16 16">
  <path d="M14.1 4.3H2c-.6 0-1 .5-1 1v5.4c0 .6.5 1 1 1h4.7c.1 0 .2-.1.3-.2l.7-1.4c.1-.2.3-.2.4-.2.1 0 .1.1.2.2l.7 1.4c.1.1.2.2.3.2h4.8c.6 0 1-.5 1-1V5.3c0-.6-.5-1-1-1zM4.8 9.2c-.7 0-1.2-.5-1.2-1.2s.5-1.2 1.2-1.2S6 7.3 6 8s-.5 1.2-1.2 1.2zm6.4 0c-.7 0-1.2-.5-1.2-1.2s.5-1.2 1.2-1.2 1.2.5 1.2 1.2-.5 1.2-1.2 1.2z"/>
</svg>

<svg xmlns="http://www.w3.org/2000/svg" fill="#f4f4f7" fill-opacity="context-fill-opacity" viewBox="0 0 16 16"><path d="M14.1,4.3H2c-0.6,0-1,0.5-1,1v5.4c0,0.6,0.5,1,1,1h4.7c0.1,0,0.2-0.1,0.3-0.2l0.7-1.4C7.8,9.9,8,9.9,8.1,9.9 c0.1,0,0.1,0.1,0.2,0.2L9,11.5c0.1,0.1,0.2,0.2,0.3,0.2h4.8c0.6,0,1-0.5,1-1V5.3C15.1,4.7,14.6,4.3,14.1,4.3z M4.8,9.2 C4.1,9.2,3.6,8.7,3.6,8c0-0.7,0.5-1.2,1.2-1.2C5.5,6.8,6,7.3,6,8c0,0,0,0,0,0C6,8.7,5.5,9.2,4.8,9.2z M11.2,9.2 C10.5,9.2,10,8.7,10,8c0-0.7,0.5-1.2,1.2-1.2c0.7,0,1.2,0.5,1.2,1.2c0,0,0,0,0,0C12.4,8.7,11.9,9.2,11.2,9.2z"/></svg>
